Delta/apps/scalable/office-calendar.svg

<svg xmlns="http://www.w3.org/2000/svg" xmlns:xlink="http://www.w3.org/1999/xlink" width="192" height="192" viewBox="0 0 192 192">
  <defs>
    <rect id="calendar-a" width="152" height="152" x="20" y="20" rx="10"/>
  </defs>
  <g fill="none" fill-rule="evenodd">
    <mask id="calendar-b" fill="#fff">
      <use xlink:href="#calendar-a"/>
    </mask>
    <use fill="#9ABEFF" xlink:href="#calendar-a"/>
    <path fill="#FFF" d="M79.5149955,88.9600067 L96.7949919,67.0000113 L62.4149991,67.0000113 L62.4149991,75.0100096 L81.3149952,75.0100096 L65.2049985,95.9800052 L65.4749985,95.9800052 L79.7849955,95.9800052 C84.7349944,95.9800052 88.6049936,99.3100045 88.6049936,104.350003 C88.6049936,109.480002 84.8249944,113.440002 79.6949955,113.440002 C75.1049965,113.440002 71.1449973,110.200002 71.1449973,105.970003 L62.4149991,106.060003 C62.4149991,114.790001 70.1549975,121.72 79.6049955,121.72 C89.5949934,121.72 97.1549919,114.070001 97.1549919,104.710003 C97.1549919,94.8100055 89.3249935,88.6000068 79.5149955,88.9600067 L79.5149955,88.9600067 Z M118.714998,121 L127.354996,121 L127.354996,67.0000113 L110.074999,67.0000113 L110.074999,75.0100096 L118.714998,75.0100096 L118.714998,121 Z" mask="url(#calendar-b)"/>
    <rect width="196" height="98" x="-2" y="-2" fill="#000" fill-opacity=".25" mask="url(#calendar-b)"/>
  </g>
</svg>

<svg width="192" height="192" version="1.1" viewBox="0 0 192 192" xmlns="http://www.w3.org/2000/svg">
 <rect x="20" y="20" width="152" height="152" ry="10" style="fill:#9abeff;paint-order:stroke fill markers"/>
 <path d="m79.515 88.96 17.28-21.96h-34.38v8.01h18.9l-16.11 20.97h14.58c4.95 0 8.82 3.33 8.82 8.37 0 5.13-3.78 9.09-8.91 9.09-4.59 0-8.55-3.24-8.55-7.47l-8.73 0.09c0 8.73 7.74 15.66 17.19 15.66 9.99 0 17.55-7.65 17.55-17.01 0-9.9-7.83-16.11-17.64-15.75zm39.2 32.04h8.64v-54h-17.28v8.01h8.64z" style="fill-rule:evenodd;fill:#fff"/>
 <path d="m30 20c-5.54 0-10 4.46-10 10v66h152v-66c0-5.54-4.46-10-10-10h-132z" style="fill-opacity:.25;fill-rule:evenodd"/>
</svg>
